X: 200
T: Dui Hua
%%abc-version 2.0
%%abcx-abcm2ps-target-version 5.9.1 (29 Sep 2008)
%%abc-creator hum2abc beta
%%abcx-conversion-date 2013/10/02 07:52:29
%%abc-edited-by Helmut Schaffrath
%%humdrum-veritas 1976402836
%%humdrum-veritas-data 1151396238
%%continueall 1
%%barnumbers 0
L: 1/8
M: 2/4
K: G
g g/ e/d2 [I:setbarnb 1]| 
d d/ B/A2 | 
d> B d3/ E/ | 
B> A G D | 
B E B B/ B/ | 
E B A E | 
G D G E | 
D4 | 
g g/ e/d2 | 
d d/ B/A2 | 
d> B d3/ E/ | 
B> A G D | 
B E B B/ B/ | 
E B A G | 
G D G E | 
D4 | 
G EG2- | 
G AG2 | 
A2G E | 
G ED2 | 
B E B B/ B/ | 
E B A E | 
G D G E | 
D4 |]  



